X:1
T:Buddington, SM
T:Buddington, SM
T:Henry Gough Trembath (1843-1908)
T:Public Domain Courtesy of the Cyber Hymnal™
C:Henry Gough Trembath (1843-1908)
Z:Public Domain
Z:Courtesy of the Cyber Hymnal™
%%score ( 1 2 ) ( 3 4 )
L:1/8
Q:1/4=113
M:4/4
K:D
V:1 treble 
V:2 treble 
V:3 bass 
V:4 bass 
V:1
 [FA]2 | [Fd]2 ([FA][DF]) [DE]2 [CE]2 | D6 [A,E]2 | [DF]2 [Fd]2 [FB]2 [EB]2 | [CA]6 [DF]2 | %5
 [DG]2 A2 [GB]2 [^DB]2 | [Ee]2 [Ed]2 [Ec]2 [Dd]2 | [EA]2 [DF]2 [DE]2 [CE]2 | D6 |] %9
V:2
 x2 | x8 | D6 x2 | x8 | x8 | x2 (EF) x4 | x8 | x8 | D6 |] %9
V:3
 [D,A,]2 | [D,A,]2 [D,A,]2 [G,,B,]2 (A,G,) | [D,F,]6 [C,E,]2 | D,2 [B,,B,]2 [E,A,]2 [E,^G,]2 | %4
 [A,,A,]6 [D,A,]2 | B,2 [A,=C]2 [G,B,]2 [F,A,]2 | [E,G,]2 [E,^G,]2 [A,,A,]2 [B,,F,]2 | %7
 [C,E,]2 [D,A,]2 [G,,B,]2 [A,,A,]2 | [D,F,]6 |] %9
V:4
 x2 | x6 A,,2 | x8 | D,2 x6 | x8 | B,2 x6 | x8 | x8 | x6 |] %9

